svg/u1f352.svg

<svg viewBox="0 0 128 128" xmlns="http://www.w3.org/2000/svg">
  <path d="M79.05,78.15l-13.17-2.32c0,0-0.57,0.46-2.15,2.38s-3.16,5.46-3.16,5.46l-31.52-6.3 c0,0-14.21,9.19-10.62,27.77c3.2,16.53,17.55,20.18,25.44,20.34c16.68,0.34,24.36-12.12,24.36-12.12s16.24,12.16,31.89,1.69 c16-10.7,10.18-31.63,6.46-34.45C103.33,78.15,79.05,78.15,79.05,78.15z" fill="#AF0C1A"/>
  <path d="M44.45,73.13c-13.97-0.11-21.48,7.22-22.08,16.56c-0.56,8.68,5.3,21.07,20.96,22.08 c15.66,1.01,25.8-10.7,24.34-20.39C66.36,82.78,58.76,73.24,44.45,73.13z" fill="#DC0D27"/>
  <path d="M78.59,99.27c0,0-1.69-7.1-4.96-12.84c-3.27-5.75-7.77-10.59-7.77-10.59s9.16-9.16,22.79-7.13 c13.63,2.03,19.8,14.57,19.8,14.57s-1.33,11.43-9.92,16C86.48,105.69,78.59,99.27,78.59,99.27z" fill="#DC0D27"/>
  <path d="M71.61,75.61c-1.42,1.32,0.03,6.21,4.42,9.14c4.39,2.93,8.87,3.7,10.68,0.55 c1.8-3.15-0.56-5.44-3.38-6.54c-1.84-0.72-3.53-0.55-5.67-2.24S73.2,74.12,71.61,75.61z" fill="#FF605F"/>
  <path d="M89.32,79.09c-0.78,1.88,1.97,4.03,4.03,3c2.06-1.03,2.06-3.6-0.6-4.37 C90.47,77.06,89.74,78.07,89.32,79.09z" fill="#FF605F"/>
  <path d="M41.4,95.89c1.22,3.14,5.66,1.29,8.14-0.17c2.49-1.46,3.34-3.43,2.57-5.31s-4.2-2.23-7.11-0.77 C42.64,90.82,40.2,92.81,41.4,95.89z" fill="#FF605F"/>
  <path d="M30.77,78.24c-3.87,2.29-4.11,6.54-3.51,7.89c1.54,3.51,3.34,3.26,4.46,5.06 c1.11,1.8,2.82,5.33,5.23,4.97c3.43-0.51,3.17-4.97,2.06-7.8c-0.83-2.11-1.8-4.2-1.97-6.86C36.86,78.84,36.86,74.64,30.77,78.24z" fill="#FF605F"/>
  <path d="M15.17,19.6c-1.29,3.35,1.03,5.79,3.51,7.03c2.71,1.35,5.67,1.35,5.67,1.35s8.51,10.13,12.43,22.56 c3.66,11.6,4.96,25.24,4.73,27.56c-0.27,2.7-0.41,5.27,0.27,6.22c1.34,1.88,4.73,1.49,5.4,0.14c0.95-1.89-0.14-6.22-0.14-6.22 s-0.41-15.67-4.32-28.1s-8.92-19.59-8.92-19.59s16.97,4.62,27.97,14.73C78.4,60.54,80.16,69.56,80.16,69.56s0.09,4.49,1.17,5.84 c1.08,1.35,6.02,0.54,6.16-1.49c0.14-2.03-1.27-5.73-1.27-5.73s-4.16-14.83-21.99-28.31C48.19,27.75,28.55,23.11,28.55,23.11 s-2.01-3.03-5.27-4.73C20.43,16.9,16.38,16.45,15.17,19.6z" fill="#759937"/>
  <path d="M26.81,23.32c-0.54-1.22,1.47-7.82,11.47-13.09s21.39-6.88,36.09-6.64 c16.51,0.27,24.18,2.8,24.49,3.79c0.32,1.02-7.67,6.52-7.67,6.52l-26.42,7.8l-25,3.24L26.81,23.32z" fill="#366918"/>
  <path d="M66.65,28.92c21.01-3.99,32.13-20.1,32.13-21.09c0-0.12-1.33,0.14-3.08,0.55 c-1.76,0.41-17.17,4.76-25,6.89c-8.92,2.43-20.55,4.58-24.59,5.13c-5.95,0.81-19.05,2.97-19.05,2.97S42.96,33.42,66.65,28.92z" fill="#518E30"/>
</svg>

<svg viewBox="0 0 128 128" xmlns="http://www.w3.org/2000/svg">
  <defs/>
  <path d="M79.05,78.15 L65.88,75.83 C65.88,75.83 65.31,76.29 63.73,78.21 C62.15,80.13 60.57,83.67 60.57,83.67 L29.05,77.37 C29.05,77.37 14.84,86.56 18.43,105.14 C21.63,121.67 35.98,125.32 43.87,125.48 C60.55,125.82 68.23,113.36 68.23,113.36 C68.23,113.36 84.47,125.52 100.12,115.05 C116.12,104.35 110.3,83.42 106.58,80.6 C103.33,78.15 79.05,78.15 79.05,78.15 Z" fill="#AF0C1A"/>
  <path d="M44.45,73.13 C30.48,73.02 22.97,80.35 22.37,89.69 C21.81,98.37 27.67,110.76 43.33,111.77 C58.99,112.78 69.13,101.07 67.67,91.38 C66.36,82.78 58.76,73.24 44.45,73.13 Z" fill="#DC0D27"/>
  <path d="M78.59,99.27 C78.59,99.27 76.9,92.17 73.63,86.43 C70.36,80.68 65.86,75.84 65.86,75.84 C65.86,75.84 75.02,66.68 88.65,68.71 C102.28,70.74 108.45,83.28 108.45,83.28 C108.45,83.28 107.12,94.71 98.53,99.28 C86.48,105.69 78.59,99.27 78.59,99.27 Z" fill="#DC0D27"/>
  <path d="M71.61,75.61 C70.19,76.93 71.64,81.82 76.03,84.75 C80.42,87.68 84.9,88.45 86.71,85.3 C88.51,82.15 86.15,79.86 83.33,78.76 C81.49,78.04 79.8,78.21 77.66,76.52 C75.52,74.83 73.2,74.12 71.61,75.61 Z" fill="#FF605F"/>
  <path d="M89.32,79.09 C88.54,80.97 91.29,83.12 93.35,82.09 C95.41,81.06 95.41,78.49 92.75,77.72 C90.47,77.06 89.74,78.07 89.32,79.09 Z" fill="#FF605F"/>
  <path d="M41.4,95.89 C42.62,99.03 47.06,97.18 49.54,95.72 C52.03,94.26 52.88,92.29 52.11,90.41 C51.34,88.53 47.91,88.18 45,89.64 C42.64,90.82 40.2,92.81 41.4,95.89 Z" fill="#FF605F"/>
  <path d="M30.77,78.24 C26.9,80.53 26.66,84.78 27.26,86.13 C28.8,89.64 30.6,89.39 31.72,91.19 C32.83,92.99 34.54,96.52 36.95,96.16 C40.38,95.65 40.12,91.19 39.01,88.36 C38.18,86.25 37.21,84.16 37.04,81.5 C36.86,78.84 36.86,74.64 30.77,78.24 Z" fill="#FF605F"/>
  <path d="M15.17,19.6 C13.88,22.95 16.2,25.39 18.68,26.63 C21.39,27.98 24.35,27.98 24.35,27.98 C24.35,27.98 32.86,38.11 36.78,50.54 C40.44,62.14 41.74,75.78 41.51,78.1 C41.24,80.8 41.1,83.37 41.78,84.32 C43.12,86.2 46.51,85.81 47.18,84.46 C48.13,82.57 47.04,78.24 47.04,78.24 C47.04,78.24 46.63,62.57 42.72,50.14 C38.81,37.71 33.8,30.55 33.8,30.55 C33.8,30.55 50.77,35.17 61.77,45.28 C78.4,60.54 80.16,69.56 80.16,69.56 C80.16,69.56 80.25,74.05 81.33,75.4 C82.41,76.75 87.35,75.94 87.49,73.91 C87.63,71.88 86.22,68.18 86.22,68.18 C86.22,68.18 82.06,53.35 64.23,39.87 C48.19,27.75 28.55,23.11 28.55,23.11 C28.55,23.11 26.54,20.08 23.28,18.38 C20.43,16.9 16.38,16.45 15.17,19.6 Z" fill="#759937"/>
  <path d="M26.81,23.32 C26.27,22.1 28.28,15.5 38.28,10.23 C48.28,4.96 59.67,3.35 74.37,3.59 C90.88,3.86 98.55,6.39 98.86,7.38 C99.18,8.4 91.19,13.9 91.19,13.9 L64.77,21.7 L39.77,24.94 L26.81,23.32 Z" fill="#366918"/>
  <path d="M66.65,28.92 C87.66,24.93 98.78,8.82 98.78,7.83 C98.78,7.71 97.45,7.97 95.7,8.38 C93.94,8.79 78.53,13.14 70.7,15.27 C61.78,17.7 50.15,19.85 46.11,20.4 C40.16,21.21 27.06,23.37 27.06,23.37 C27.06,23.37 42.96,33.42 66.65,28.92 Z" fill="#518E30"/>
</svg>
